X:1
T:Title
%%score { ( 1 3 ) | 2 }
L:1/8
M:4/4
K:Db
V:1 treble nm="Grand Piano"
V:3 treble 
V:2 bass 
V:1
 z4 z2[Q:1/4=92] [Fd]2 | [Fd]2 cB A2 B2 | A6 F2 | D4 F4 | [CA]8 | F2 FF [EA]2 [EA]2 | [Dd]6 [FB]2 | %7
 [EA]4 [DB]4 | [CA]6 [CA]2 | [CB]3 [CE] [CF]2 [CG]2 | [DB]2 [DA]2- [DA]DFA | [Fd]2 [Fd]2- [Fd]DFA | %12
[M:3/4] [Gd]2 [Fd]2 z2 |] %13
V:2
 z4 z2 [D,A,]2 | [D,A,]2 [E,A,]2 [F,A,F]2 [G,E]2 | [G,A,C]6 [G,A,C]2 | [F,A,]4 [D,A,D]4 | %4
 [A,,A,]8 | [D,A,D]2 [D,A,D][D,A,D] [C,A,]2 [C,A,]2 | [B,,F,]6 [D,B,]2 | [E,C]4 [E,=G,]4 | %8
 [A,,A,]6 [A,,A,]2 | [A,,G,]3 [A,,G,] [A,,G,]2 [A,,G,]2 | %10
 [A,,F,]2 [A,,F,]2- [A,,F,]D,[D,A,D][D,F,D] | [B,,B,]2 [B,,B,]2- [B,,B,][D,F,][D,A,D][D,F,D] | %12
[M:3/4] [D,B,]2 [D,A,]2 z2 |] %13
V:3
 x8 | z2 G2 z4 | x8 | x8 | x8 | x8 | x8 | x8 | x8 | x8 | x8 | x8 |[M:3/4] x6 |] %13

